X: 11534
Q: "Slow and plaintive."
M: C	% Actually, there's no time signature.
L: 1/8
K: Gm
d3c B2A2 | A3G ^F2FG | A2f2 =e2f2 | g3{b}a (gf) zf |\
g3f d2B2 | A2B2 c3d | b2a2 g2^f2 | g3d/c/ BGz |]
d3B e3c | (dc)(BA) G3g | g3^f g2e2 | d3^c cd za |\
b2a2 b2g2 | fd3 c2e2 | dB3 A3c | B3B/A/ AGz |]


